X:5
T:5 Quis est homo
T:à due
M:C
L:1/8
%%staves s | a | {1 2 3}
Q:"Largo"
K:Cm
% (19)
V:s name=Sopran dyn=up
c3e d/c/{c}d2z|d2g2=e{e}f3|f3a{c}=B3c|
w:Quis est ho -mo qui non fle-ret, Chri-sto ma-trem
V:a name=Alt dyn=up
z8|z8|z8|
V:1 name="Str.\nBc."
[Ge][Ge][Ge][Ge] [Fd][Fd][Fd][^Fd]|[Gd][Gd][Gd][Gd] [G=e][cf][cf][cf]|[cf][cf][cf][cf] [=Bd][Bd][GB][Gc]|
V:2
!dolce!x8|x8|x8|
V:3
C,CCC C=B,B,B,|_B,B,B,B, B,=A,A,A,|_A,A,F,F, F,F,E,E,|
V:s		% M4
f2e2e d zG|g8-|g2f//e3// (d//c3//) [Q:"Largo"]=B3/ =A/HG2|z8|
w:si vi-de-ret in tan -to_ sup -pli-ci-o?
V:a
z8|z8|Hz8|G3_B =A/G/{G}A2z|
w:Quis non pos -set
V:1
[df][df][ce][ce] [ce][=Bd]z2|g8-|g2[Q:"Largo"](f^fHg4)|[_Bd][Bd][Bd][Bd] [=Ac][Ac][Ac][A^c]|
V:2
x8|!dolce!z2(e2d2_d2|c4)=B4|!dolce!x8|
V:3
zF,^F,F, G,G,,z2|z2(C2=B,2_B,2|=A,2_A,2)HG,4|G,,G,G,G, G,^F,F,F,|
V:s		% M8
z8|z8|z8|z8|
V:a
=A2d2=B{B}c3|c3e{G}^F3G|c2B2B =A zD|d8-|
w:con-tri-sta-ri, pi-am ma-trem con-tem-pla-ri do-len-
V:1
[=Ad][Ad][Ad][Ad] [G=B][Gc][Gc][Gc]|[Gc][Gc][Gc][Gc] [^F=A][FA][DF][DG]|[=Ac][Ac][GB][GB] [GB][^FA]z2|d8-|
V:2
x8|x8|x8|!dolce!z2(B2=A2_A2)||
V:3
=F,F,F,F, F,=E,E,E,|_E,E,C,C, C,C,B,,B,,|zC,^C,C,D,2z2|z2(G,2^F,2=F,2|
% (20)
V:s		% M12
Hz8|=A2zB B Az2|=A3B B Az2|
w:Quis est ho-mo, qui non fle-ret,
V:a
d2c//B3// =A//G3// [Q:"Largo"]{G}^F3/ =E/HD2|^F2zG G Fz2|^F3G G Fz2|
w:-tem_ cum_ fi-li-o? Quis non pos-set con-tri-sta-ri
V:1
d2[Q:"Largo"](c^c)Hd4|D3/(d/ =A/B/^F/G/) D3/(d/ A/B/F/G/)|D3/(d/ =A/B/^F/G/) D3/(d/ A/B/F/G/)|
V:2
G4^F4|!dolce!x8|x8|
V:3
=E,2_E,2)HD,4|D,D,D,D, D,D,D,D,|D,D,D,D, D,D,D,D,|
V:s		% M15
=A3Bc2B2|gTB3B =A zd|g2(=f//e3//) (d//^c3//) [Q:"Largo"]d/ c/ dz2|
w:Chri-sti ma-trem si vi-de-ret in tan-to_ sup -pli-ci-o?
V:a
^F3G=A2G2|BTG3G ^Fz2|z4z2zD|
w:pi-am ma-trem con-tem-pla-ri do-
V:1
D3/(d/ =A/B/^F/G/) [Ac][Ac][GB][GB]|[gb][GB][GB][GB] B=Ad2-|d3^c[Q:"Largo"]d4-|
V:2
x8|x4G(^F/d/ A/B/F/G/)|G,G2G ^F3/(d/ =A/B/F/G/)|
V:3
D,D,D,D, ^F,F,G,G,|^C,C,C,C, D,D,D,D,|E,4D,D,D,D,|
V:s		% M18
z8|^F2z2=A2Hz2|[M:6/8][Q:"allegro"]B3-B (c_A)|
w:quis? quis? Pro_ pec -
V:a
G2(=F//E3//) [Q:"Largo"](D//^C3//) D/ C/ Dz2|D2z2^F2Hz2|[M:6/8]G3-G (AF)|
w:len-tem_ cum_ fi-li-o? quis? quis? Pro_ pec -
V:1
d3^c [Q:"Largo"][^Fd]3/(d/ =A/B/F/G/)|D3/(d/ =A/B/^F/G/)D2Hz2|[M:6/8]([GB][EG][F_A] [GB][Ac][FA])|
V:2
G,G2Gx4|x8|[M:6/8]x6|
V:3
E,4D,2z2|D,2z2D,2Hz2|[M:6/8]E,3E,3|
% (21)
V:s		% M21
B3-B (cA)|B3-B (cA)|B3E2z|F3-F (_GE)|
w:ca -tis_ su -se_ gen-tis vi -dit_
V:a
G3-G (AF)|G3-G (AF)|G3E2z|D3-D (EC)|
w:ca -tis_ su -se_ gen-tis vi -dit_
V:1
([GB][EG][FA] [GB][Ac][FA])|([GB][EG][FA] [GB][Ac][FA]|[GB])wGwEwB,3|([DF][B,D][CE] [DF][E_G][CE])|
V:2
x6|x6|x6|x6|
V:3
E,3E,3|E,3E,3|E,3-E,G,E,|B,,3B,,3|
V:s		% M25
F3-F (_GE)|F3-F (_GE)|F3F2z|!forte!A3A3|
w:Je -sum_ in_ tor -men-tis et fla
V:a
D3-D (EC)|D3-D (EC)|D3D2z|!forte!F3F3|
w:Je -sum_ in_ tor -men-tis et fla
V:1
([DF][B,D][CE] [DF][E_G][CE])|([DF][B,D][CE] [DF][E_G][CE]|[DF])wFwDwB,2z|[FA][fa][FA] [FA][fa][FA]|
V:2
x6|x6|x6|!forte!x6|
V:3
B,,3B,,3|B,,3B,,3|B,,3-B,,F,D,|=B,,3B,,3|
V:s		% M29
G3c3|(c3=B2)c|c3z2z|!dolce!G6|
w:gel-lis sub -di-tum, vi-
V:a
E3E3|D3-D2C|C3z2z|!dolce!G6|
w:gel-lis sub -di-tum, vi-
V:1
[EG][eg][CE] [CE][ce][CE]|[CD][cd][CD] [=B,D][=Bd][B,D]|CGEC2z|G,D=B, G,DB,|
V:2
x6|x6|x4!dolce!x2|!sottov!x6|
V:3
C,3A,,3|F,,3G,,3|C,3-C,E,C,|G,,6-|
% (22)
V:s		% M33
G6|G6|G6|G3G3|
w:dit Je-sum in tor-
V:a
G6|G6|G6|G3G3|
w:dit Je-sum in tor-
V:1
G,EC G,EC|G,FD G,FD|G,GE G,GE|G,GE G,FD|
V:2
x6|x6|x6|x6|
V:3
G,,6-|G,,6-|G,,6-|G,,6-|
V:s		% M37
G3G3|!forte!e3=B3|c3c3|(c3=B2)B|
w:men-tis et fla-gel-lis sub -di-
V:a
G3G3|!forte!G3F3|G3A3|D3-D2D|
w:men-tis et fla-gel-lis sub -di-
V:1
G,EC G,D=B,|G,ec z=Bd|zcG zFA|zEC z=B,D|
V:2
x6|!forte!x6|x6|x6|
V:3
G,,6|C,3D,3|E,3F,3|G,3G,,3|
V:s		% M41
c3z2Hz|c3=B3|c3c3|(c3=B2)B|
w:tum, et fla-gel-lis sub -di-
V:a
C3z2Hz|E3F3|G3A3|D3-D2D|
w:tum, et fla-gel-lis sub -di-
V:1
{=B,}C3z2Hz|zgc z=Bd|zcG zAF|zEC z=B,D|
V:2
x6|x!dolce!x2x3|x6|x6|
V:3
A,,3z2Hz|!dolcea!C,3D,3|E,3F,3|G,3G,,3|
% (23)
V:s		% M45
c3z2z|z6|z6|z6|Hz6|]
w:tum.
V:a
C3z2z|z6|z6|z6|Hz6|]
w:tum.
V:1
C3-CcA-|A3-AG=B,|{=B,}C3-CcA-|A3-AG=B,|{=B,}HC6|]
V:2
x3!forte!x3|x6|x3!dolce!x3|x6|x6|]
V:3
C,3E,3|F,3G,3|A,3E,3|F,3G,3|HC,6|]

